X:56
% %NRChange 2010-02-05
T: Ostindiens velkomet
T: Welcome to the East India
R: s\onderhoning
Z: John Chambers <jc@trillian.mit.edu>
O: Danmark
D: "Sand p\aa gulvet"
M: 2/4
L: 1/16
Q: 100
F:http://jc.tzo.net/~jc/music/abc/Denmark/OstindiensVelkomet.abc
K: G
D2 \
| "G"G2G2 B2dB | G4 A2B2 | "Am"c3B A2G2 | "D7"GFAF D2D2 \
| "G"G2G2 B2dB | G4 A2B2 | "Am"c3A "D7"FGAF | "G"G6 :|
|: AB \
| "Am"c3c "D7"B2A2 | "G"GABc d4 | G3G "A7"F2G2 | "D"AFDF A4 \
| AFDF A4 | DEFG A2AG | F2FD "A7"E2E2 | D4 d3B |
| "G"G3G F2D2 | "C"E4- E2AB | "Am"c3c "Em"B2G2 | "D7"A4- A2Bc | "G"d2d2 d2e2 \
| "Am"c2cB "D7"A2Bc | "G"d3d d2e2 | "Am"c2cB "D7"A2c2 \
| "G"B2AG "D7"A2GF | "G"G6 :|

